logos/nhost.svg

<?xml version="1.0" encoding="UTF-8"?>
<svg width="512px" height="173px" viewBox="0 0 512 173" version="1.1" xmlns="http://www.w3.org/2000/svg" preserveAspectRatio="xMidYMid">
    <title>Nhost</title>
    <g>
        <path d="M274.186354,82.3771842 L300.12356,82.3771842 L300.12356,61.8038709 L313.844514,61.8038709 L313.844514,114.587599 L300.12356,114.587599 L300.12356,94.0088733 L274.186354,94.0088733 L274.186354,114.587599 L260.941709,114.587599 L260.941709,61.8038709 L274.180942,61.8038709 L274.180942,82.3771842 L274.186354,82.3771842 Z M366.178997,61.8038709 L344.999471,61.8038709 C339.132207,61.8038709 335.559888,62.9080424 332.858997,65.6089325 C330.168932,68.2935848 329.135125,71.7035262 329.135125,77.7223435 L329.135125,98.690777 C329.135125,104.709594 330.16352,108.108711 332.858997,110.804188 C335.549062,113.499666 339.121382,114.60925 344.999471,114.60925 L366.178997,114.60925 C372.046261,114.60925 375.61858,113.499666 378.319471,110.804188 C381.025773,108.119536 382.043343,104.709594 382.043343,98.690777 L382.043343,77.7223435 C382.043343,71.7035262 381.014948,68.30441 378.319471,65.6035199 C375.613168,62.9080424 372.046261,61.8038709 366.178997,61.8038709 L366.178997,61.8038709 Z M368.793285,98.9992955 C368.793285,102.084481 367.76489,102.950498 364.035605,102.950498 L347.142863,102.950498 C343.418991,102.950498 342.37977,102.084481 342.37977,98.9992955 L342.37977,77.3921746 C342.37977,74.3015769 343.418991,73.43556 347.142863,73.43556 L364.035605,73.43556 C367.851492,73.43556 368.798698,74.2203878 368.798698,77.386762 L368.798698,98.9992955 L368.793285,98.9992955 Z M414.865383,82.9238573 L433.814914,82.9238573 C439.682179,82.9238573 443.330275,84.0334415 445.955388,86.728919 C448.331522,89.1104654 449.679261,92.9804783 449.679261,97.1752475 L449.679261,100.347034 C449.679261,104.547216 448.326109,108.33604 445.955388,110.793363 C443.330275,113.48884 439.757955,114.598424 433.814914,114.598424 L397.653297,114.598424 L397.653297,102.961323 L431.595746,102.961323 C435.319619,102.961323 436.358839,102.095306 436.358839,99.0101207 L436.358839,97.42964 C436.358839,94.3390422 435.319619,93.4730254 431.595746,93.4730254 L412.651627,93.4730254 C406.768125,93.4730254 403.125441,92.352616 400.511153,89.6679637 C398.135019,87.2864173 396.781868,83.421817 396.781868,79.2216352 L396.781868,76.055261 C396.781868,71.8550792 398.124194,68.0608428 400.511153,65.6089325 C403.136267,62.9080424 406.692348,61.8038709 412.646214,61.8038709 L446.924245,61.8038709 L446.924245,73.43556 L414.865383,73.43556 C411.14151,73.43556 410.107702,74.3015769 410.107702,77.386762 L410.107702,78.9672428 C410.107702,82.0632531 411.14151,82.92927 414.870795,82.92927 L414.865383,82.9238573 Z M458.074212,73.43556 L458.074212,61.7984583 L512,61.7984583 L512,73.43556 L491.70273,73.43556 L491.70273,114.587599 L478.452671,114.587599 L478.452671,73.43556 L458.068799,73.43556 L458.074212,73.43556 Z" fill="#21324B"></path>
        <path d="M229.250904,61.3871003 L208.071379,61.3871003 C202.204114,61.3871003 198.631795,62.4912718 195.930905,65.1921619 C193.24084,67.8768142 192.207032,71.2867556 192.207032,77.2947477 L192.207032,114.576774 L205.451678,114.576774 L205.451678,76.975404 C205.451678,73.8902188 206.485485,73.024202 210.21477,73.024202 L227.107512,73.024202 C230.917986,73.024202 231.865192,73.8144424 231.865192,76.975404 L231.865192,114.582187 L245.11525,114.582187 L245.11525,77.3001603 C245.11525,71.281343 244.081443,67.8822268 241.385965,65.1975745 C238.6959,62.4912718 235.128993,61.3816877 229.250904,61.3816877 L229.250904,61.3871003 Z" fill="#0052CD"></path>
        <path d="M147.266169,37.1278026 L86.8993805,2.33557479 C81.4569138,-0.778524931 74.7725299,-0.778524931 69.3300632,2.33557479 C63.9110236,5.46810099 60.5685545,11.2478301 60.5562298,17.5071079 L60.5562298,22.0482838 L56.6212656,19.7749896 C51.1787989,16.6608898 44.494415,16.6608898 39.0519483,19.7749896 C33.6253679,22.9131766 30.2819061,28.7049352 30.2781149,34.9735857 L30.2781149,39.509349 L26.3431507,37.2414673 C20.902067,34.1294319 14.2203298,34.1294319 8.77924604,37.2414673 C3.35726656,40.3744042 0.0126257202,46.156385 0,52.418413 L0,161.406636 C0.00822094749,164.566223 1.81821293,167.444277 4.66242668,168.820324 C7.50664044,170.19637 10.8866556,169.829272 13.3691355,167.8747 L43.3008436,144.308216 L89.4703681,170.905759 C92.032321,172.357071 95.1680511,172.357071 97.730004,170.905759 C100.273929,169.43353 101.859822,166.705577 101.859822,163.766532 L101.859822,98.1928173 C101.840273,87.3942524 96.0720644,77.4231086 86.7207645,72.02287 L71.5817071,63.29775 L71.5817071,17.5233457 C71.5872865,15.1863187 72.837771,13.0293486 74.8630968,11.863252 C76.8884226,10.6971553 79.3816593,10.6986495 81.405586,11.867173 L141.772375,46.643163 C147.720769,50.0800175 151.390977,56.4224676 151.406812,63.2923374 L151.406812,144.963141 C151.406812,147.290561 150.151088,149.455604 148.132186,150.619314 L132.137937,159.836981 L132.137937,80.7317521 C132.11646,69.9351219 126.348509,59.9664867 116.998879,54.5672174 L79.8359304,33.1603628 L79.8359304,45.8420974 L111.49426,64.0825778 C117.445093,67.5169909 121.116194,73.860984 121.128697,80.7317521 L121.128697,164.583836 C121.128697,167.506643 122.709178,170.250834 125.258515,171.723062 C127.820752,173.173298 130.955915,173.173298 133.518151,171.723062 L153.647631,160.123849 C159.060236,157.000776 162.426877,151.19305 162.426877,144.941491 L162.426877,63.270687 C162.377734,52.4815337 156.606121,42.5290558 147.266169,37.1278026 L147.266169,37.1278026 Z M81.1890818,81.5328177 C87.1415861,84.9681995 90.8129459,91.3147019 90.8235195,98.1874047 L90.8235195,159.02509 L52.5996998,137.001198 L64.8700763,127.355935 C69.1053336,124.049003 71.5746843,118.970452 71.5600567,113.597092 L71.5600567,76.001135 L81.1944944,81.5382304 L81.1890818,81.5328177 Z M60.5508172,69.6413236 L60.5508172,113.575442 C60.5508172,115.594344 59.6360869,117.472518 58.0556061,118.706592 L11.0038269,155.728813 L11.0038269,52.4021752 C11.0071806,50.0654067 12.2563449,47.9077549 14.2811651,46.7413066 C16.3059853,45.5748584 18.7991499,45.5766482 20.8222932,46.7460025 L30.2781149,52.185671 L30.2781149,130.073063 L41.2819418,121.412895 L41.2819418,34.9627604 C41.2841795,32.6243153 42.5340853,30.4647853 44.5606353,29.2979838 C46.5871853,28.1311823 49.0823453,28.1344623 51.1058207,29.3065878 L60.5508172,34.7408436 L60.5508172,56.9433512 L49.5524029,50.5997776 L49.5524029,63.2923374 L60.5616424,69.6413236 L60.5508172,69.6413236 Z" fill="#0052CD"></path>
    </g>
</svg>

<svg preserveAspectRatio="xMidYMid" viewBox="0 0 512 173" xmlns="http://www.w3.org/2000/svg">
  <path fill="#21324B" d="M274.186 82.377h25.938V61.804h13.72v52.784h-13.72v-20.58h-25.938v20.58h-13.244V61.804h13.239v20.573h.005Zm91.993-20.573h-21.18c-5.867 0-9.44 1.104-12.14 3.805-2.69 2.685-3.724 6.095-3.724 12.113v20.969c0 6.019 1.029 9.418 3.724 12.113 2.69 2.696 6.262 3.805 12.14 3.805h21.18c5.867 0 9.44-1.11 12.14-3.805 2.707-2.684 3.724-6.094 3.724-12.113V77.722c0-6.018-1.028-9.418-3.724-12.118-2.706-2.696-6.273-3.8-12.14-3.8Zm2.614 37.195c0 3.085-1.028 3.951-4.757 3.951h-16.893c-3.724 0-4.763-.866-4.763-3.95V77.391c0-3.09 1.039-3.956 4.763-3.956h16.893c3.815 0 4.763.784 4.763 3.95V99h-.006Zm46.072-16.075h18.95c5.867 0 9.515 1.11 12.14 3.805 2.377 2.381 3.724 6.251 3.724 10.446v3.172c0 4.2-1.353 7.989-3.724 10.446-2.625 2.696-6.197 3.805-12.14 3.805h-36.162v-11.637h33.943c3.724 0 4.763-.866 4.763-3.95V97.43c0-3.091-1.04-3.957-4.763-3.957h-18.944c-5.884 0-9.527-1.12-12.14-3.805-2.377-2.382-3.73-6.246-3.73-10.446v-3.167c0-4.2 1.342-7.994 3.73-10.446 2.624-2.701 6.18-3.805 12.134-3.805h34.278v11.632h-32.059c-3.723 0-4.757.866-4.757 3.95v1.581c0 3.096 1.034 3.962 4.763 3.962l-.006-.005Zm43.21-9.488V61.798H512v11.638h-20.297v41.152h-13.25V73.436h-20.384.005Z"/>
  <path fill="#0052CD" d="M229.25 61.387h-21.179c-5.867 0-9.44 1.104-12.14 3.805-2.69 2.685-3.724 6.095-3.724 12.103v37.282h13.245V76.975c0-3.085 1.033-3.95 4.763-3.95h16.893c3.81 0 4.757.79 4.757 3.95v37.607h13.25V77.3c0-6.019-1.034-9.418-3.729-12.102-2.69-2.707-6.257-3.816-12.135-3.816v.005Z"/>
  <path fill="#0052CD" d="M147.266 37.128 86.9 2.336a17.688 17.688 0 0 0-17.569 0 17.564 17.564 0 0 0-8.774 15.171v4.541l-3.935-2.273a17.688 17.688 0 0 0-17.57 0 17.57 17.57 0 0 0-8.773 15.199v4.535l-3.935-2.268a17.688 17.688 0 0 0-17.564 0A17.57 17.57 0 0 0 0 52.418v108.989a8.26 8.26 0 0 0 13.37 6.468l29.93-23.567 46.17 26.598a8.379 8.379 0 0 0 8.26 0 8.272 8.272 0 0 0 4.13-7.14V98.194a30.284 30.284 0 0 0-15.14-26.17l-15.138-8.725V17.523a6.55 6.55 0 0 1 9.824-5.656l60.366 34.776a19.28 19.28 0 0 1 9.635 16.65v81.67a6.547 6.547 0 0 1-3.275 5.656l-15.994 9.218V80.732a30.284 30.284 0 0 0-15.14-26.165L79.837 33.16v12.682l31.658 18.24a19.263 19.263 0 0 1 9.635 16.65v83.852a8.28 8.28 0 0 0 4.13 7.14 8.384 8.384 0 0 0 8.26 0l20.129-11.6c5.412-3.123 8.779-8.93 8.779-15.183v-81.67a30.36 30.36 0 0 0-15.16-26.143ZM81.19 81.533a19.263 19.263 0 0 1 9.635 16.654v60.838L52.6 137.001l12.27-9.645a17.396 17.396 0 0 0 6.69-13.759V76.001l9.634 5.537-.005-.005ZM60.551 69.64v43.934a6.48 6.48 0 0 1-2.495 5.132l-47.052 37.022V52.402a6.544 6.544 0 0 1 9.818-5.656l9.456 5.44v77.887l11.004-8.66v-86.45a6.544 6.544 0 0 1 9.824-5.656l9.445 5.434v22.202L49.552 50.6v12.692l11.01 6.35h-.011Z"/>
</svg>
